!! 00001] TT[TB
!! Zhongguo Changpian HL - 172, Y 142, Shanghai) Kassette
!!!OTL: Yigen sixian qianguo he
!!!ARE: Asia, China,ÿJiangsu, Jiangdu
!! Ethnic Group: Han
!! III, 486
!!!SCT: C0452
!!!YEM: Copyright 1995, estate of Helmut Schaffrath.
**kern
*ICvox
*Ivox
!! Mixed meters:  2/4; 3/4
*M2/4
*k[b-]
*F:
{4cc
8dd
8ff
=1
16dd
16cc
8a
[4cc
=2
2cc]}
=3
{4cc
8dd
8ff
=4
8dd
8cc
8cc
16ff
16dd
=5
16cc
16a
16a
16f
8g
8g}
=6
{8cc
8dd
8cc
16cc
16a
=7
16g
16a
16g
16f
[4d
=8
2d]}
=9
*M3/4
{16dd
16cc
8a
4.cc
8ff
=10
*M2/4
16dd
16cc
16a
16g
8f
8f
=11
16a
16cc
8g
16f
8.d}
=12
{8d
16g
16a
16f
16g
16f
16d
=13
2c}
=14
{4cc
8dd
8ff
=15
8gg
16ff
16dd
16dd
16cc
8a
=16
*M3/4
2.cc}
=17
*M2/4
{4cc
8dd
8ff
=18
8dd
8cc
8cc
16ff
16dd
=19
16cc
16a
16a
16f
8g
8g}
=20
{8cc
16ff
16dd
8cc
16cc
16a
=21
16g
16a
16g
16f
[4d
=22
2d]}
=23
*M3/4
{16dd
16cc
8a
4.cc
8ff
=24
*M2/4
16dd
16cc
16a
16g
8f
8f
=25
16a
16cc
8g
16f
8.d}
=26
{8d
16g
16a
16f
16g
16f
16d
=27
[2c
=28
4.c]
8r}
==
!!!AGN: Shange, Tiange, Sa tangzi lao zai wai,
!!    Nongtian laodong shi chang.  Biaoda aiqing
!! Lyrisch laut Kommentar. Untertitel 2 enthaelt Fuellwoerter. Am
!!    Titel erkennt man nicht das Lied, sondern an den Fuellwoertern.
!!    Vielleicht bedeutet "yangzi" ein Werkzeug, das das Maedchen
!!    niederlegt, wenn der Geliebte kommt. Genaues weiss man nicht.
!!    Beilage kopiert. - Gesang = leichte Variante, z.T. in Version
!!    einer staff-notation nachgetragen). Einige Verzierungen und Vorspiel
!!    im ESAC weggelassen. Aufnahme enthaelt auch Zwischenspiele.
!!!ONB: ESAC (Essen Associative Code) Database: CHINA
!!!AMT: irregular
!!!AIN: vox
!!!EED: Helmut Schaffrath
!!!EEV: 1.0
*-
!!!ONB: Tied note syntax fixed by Craig Sapp, 2004/05/03/
